assets/Baby/Dark/Flat/baby_flat_dark.svg

<svg width="32" height="32" viewBox="0 0 32 32" fill="none" xmlns="http://www.w3.org/2000/svg">
<path d="M9.75 19.75C9.75 21.5449 8.29493 23 6.5 23C4.70507 23 3.25 21.5449 3.25 19.75C3.25 17.9551 4.70507 16.5 6.5 16.5C8.29493 16.5 9.75 17.9551 9.75 19.75Z" fill="#4E3233"/>
<path d="M28.75 19.75C28.75 21.5449 27.2949 23 25.5 23C23.7051 23 22.25 21.5449 22.25 19.75C22.25 17.9551 23.7051 16.5 25.5 16.5C27.2949 16.5 28.75 17.9551 28.75 19.75Z" fill="#4E3233"/>
<path d="M23.2091 5.79017C21.6581 4.63006 19.801 4 17.903 4H14.097C12.199 4 10.3419 4.63006 8.79087 5.79017C6.14804 7.78036 4.71948 11.0907 5.04601 14.481L5.94396 22.5918C6.23988 25.7321 8.32149 28.3723 11.2092 29.2724C14.3316 30.2425 17.6684 30.2425 20.7908 29.2724C23.6785 28.3723 25.7601 25.7321 26.056 22.5918L26.954 14.481C27.2805 11.0907 25.852 7.78036 23.2091 5.79017Z" fill="#573739"/>
<path d="M15.992 23.9632C14.8868 23.9632 13.8513 23.6922 12.985 23.2305C12.6863 23.0699 12.3677 23.4112 12.5569 23.7023C13.2837 24.8365 14.5582 25.5893 16.0019 25.5893C17.4457 25.5893 18.7102 24.8365 19.447 23.7023C19.6262 23.4212 19.3176 23.0799 19.0189 23.2305C18.1327 23.6922 17.0972 23.9632 15.992 23.9632Z" fill="#290118"/>
<path d="M16.0022 22.65C16.4848 22.65 16.916 22.4047 17.1624 22.0369C17.3883 21.6996 17.1521 21.25 16.7415 21.25H15.263C14.8523 21.25 14.6059 21.7099 14.842 22.0369C15.0884 22.415 15.5196 22.65 16.0022 22.65Z" fill="#3D2123"/>
<path d="M7.37001 19.6478C7.74001 18.1261 9.10001 17 10.71 17C12.38 17 13.78 18.2174 14.09 19.8203C14.16 20.1754 13.88 20.5 13.53 20.5H8.03001C7.59001 20.5 7.26001 20.0841 7.37001 19.6478Z" fill="white"/>
<path d="M24.05 19.6478C23.68 18.1261 22.32 17 20.71 17C19.03 17 17.64 18.2174 17.33 19.8203C17.26 20.1754 17.54 20.5 17.89 20.5H23.39C23.83 20.5 24.16 20.0841 24.05 19.6478Z" fill="white"/>
<path d="M9.01999 19.9203C9.01999 18.7103 9.99999 17.7203 11.22 17.7203C12.44 17.7203 13.42 18.7103 13.43 19.9203C13.43 20.1203 13.4 20.3103 13.35 20.5003H9.09999C9.04999 20.3203 9.01999 20.1203 9.01999 19.9203Z" fill="#7D4533"/>
<path d="M22.4 19.9203C22.4 18.7103 21.42 17.7203 20.2 17.7203C18.98 17.7203 17.99 18.7103 17.99 19.9203C17.99 20.1203 18.02 20.3103 18.07 20.5003H22.32C22.37 20.3203 22.4 20.1203 22.4 19.9203Z" fill="#7D4533"/>
<path d="M11.22 18.6603C11.92 18.6603 12.48 19.2203 12.48 19.9203C12.48 20.1303 12.42 20.3303 12.33 20.5003H10.1C10.01 20.3303 9.95999 20.1303 9.95999 19.9203C9.95999 19.2203 10.52 18.6603 11.22 18.6603Z" fill="black"/>
<path d="M20.2 18.6603C19.5 18.6603 18.94 19.2203 18.94 19.9203C18.94 20.1303 18.99 20.3303 19.09 20.5003H21.32C21.41 20.3303 21.46 20.1303 21.46 19.9203C21.46 19.2203 20.9 18.6603 20.2 18.6603Z" fill="black"/>
<path d="M10.53 19.0603C10.53 19.2757 10.3554 19.4503 10.14 19.4503C9.92461 19.4503 9.75 19.2757 9.75 19.0603C9.75 18.845 9.92461 18.6703 10.14 18.6703C10.3554 18.6703 10.53 18.845 10.53 19.0603Z" fill="white"/>
<path d="M19.9 19.0603C19.9 19.2757 19.7254 19.4503 19.51 19.4503C19.2946 19.4503 19.12 19.2757 19.12 19.0603C19.12 18.845 19.2946 18.6703 19.51 18.6703C19.7254 18.6703 19.9 18.845 19.9 19.0603Z" fill="white"/>
<path d="M9.64769 15.5514C10.169 15.3658 10.9157 15.2249 11.9031 15.3181C12.178 15.344 12.4219 15.1422 12.4478 14.8673C12.4738 14.5923 12.2719 14.3484 11.997 14.3225C10.8643 14.2157 9.97107 14.3748 9.31236 14.6092C9.05221 14.7018 8.91638 14.9878 9.00897 15.248C9.10157 15.5081 9.38753 15.6439 9.64769 15.5514Z" fill="black"/>
<path d="M22.2177 14.6092C21.559 14.3748 20.6657 14.2157 19.533 14.3225C19.2581 14.3484 19.0563 14.5923 19.0822 14.8673C19.1081 15.1422 19.352 15.344 19.627 15.3181C20.6143 15.2249 21.361 15.3658 21.8823 15.5514C22.1425 15.6439 22.4285 15.5081 22.5211 15.248C22.6136 14.9878 22.4778 14.7018 22.2177 14.6092Z" fill="black"/>
<path d="M15.82 2.00033C14.18 1.98033 12.76 2.88033 12.02 4.22033C12.64 4.08033 13.27 4.00033 13.9 4.00033H14.05C15.86 4.00033 17.38 5.48033 17.37 7.29033C17.36 8.11033 17.06 8.85033 16.56 9.42033C16.47 9.52033 16.42 9.65033 16.42 9.78033C16.42 10.1503 16.78 10.4203 17.13 10.3003C18.81 9.73033 20.02 8.14033 20.02 6.26033C20.03 3.94033 18.14 2.03033 15.82 2.00033Z" fill="black"/>
</svg>

<svg xmlns="http://www.w3.org/2000/svg" width="32" height="32" fill="none"><path fill="#4E3233" d="M9.75 19.75a3.25 3.25 0 1 1-6.5 0 3.25 3.25 0 0 1 6.5 0ZM28.75 19.75a3.25 3.25 0 1 1-6.5 0 3.25 3.25 0 0 1 6.5 0Z"/><path fill="#573739" d="M23.21 5.79A8.864 8.864 0 0 0 17.902 4h-3.806c-1.898 0-3.755.63-5.306 1.79-2.643 1.99-4.072 5.3-3.745 8.691l.898 8.11c.296 3.141 2.377 5.781 5.265 6.681 3.123.97 6.46.97 9.582 0 2.887-.9 4.97-3.54 5.265-6.68l.898-8.111c.326-3.39-1.102-6.7-3.745-8.69Z"/><path fill="#290118" d="M15.992 23.963a6.41 6.41 0 0 1-3.007-.733c-.299-.16-.617.181-.428.472a4.09 4.09 0 0 0 3.445 1.887 4.104 4.104 0 0 0 3.445-1.887c.18-.28-.13-.622-.428-.472a6.552 6.552 0 0 1-3.027.733Z"/><path fill="#3D2123" d="M16.002 22.65c.483 0 .914-.245 1.16-.613a.504.504 0 0 0-.42-.787h-1.479c-.41 0-.657.46-.421.787.246.378.678.613 1.16.613Z"/><path fill="#fff" d="M7.37 19.648C7.74 18.126 9.1 17 10.71 17c1.67 0 3.07 1.217 3.38 2.82.07.355-.21.68-.56.68h-5.5a.683.683 0 0 1-.66-.852ZM24.05 19.648C23.68 18.126 22.32 17 20.71 17c-1.68 0-3.07 1.217-3.38 2.82-.07.355.21.68.56.68h5.5c.44 0 .77-.416.66-.852Z"/><path fill="#7D4533" d="M9.02 19.92c0-1.21.98-2.2 2.2-2.2 1.22 0 2.2.99 2.21 2.2 0 .2-.03.39-.08.58H9.1c-.05-.18-.08-.38-.08-.58ZM22.4 19.92a2.2 2.2 0 0 0-2.2-2.2c-1.22 0-2.21.99-2.21 2.2 0 .2.03.39.08.58h4.25c.05-.18.08-.38.08-.58Z"/><path fill="#000" d="M11.22 18.66c.7 0 1.26.56 1.26 1.26 0 .21-.06.41-.15.58H10.1c-.09-.17-.14-.37-.14-.58 0-.7.56-1.26 1.26-1.26ZM20.2 18.66c-.7 0-1.26.56-1.26 1.26 0 .21.05.41.15.58h2.23c.09-.17.14-.37.14-.58 0-.7-.56-1.26-1.26-1.26Z"/><path fill="#fff" d="M10.53 19.06a.39.39 0 1 1-.78 0 .39.39 0 0 1 .78 0ZM19.9 19.06a.39.39 0 1 1-.78 0 .39.39 0 0 1 .78 0Z"/><path fill="#000" d="M9.648 15.551c.521-.185 1.268-.326 2.255-.233a.5.5 0 1 0 .094-.995c-1.133-.107-2.026.052-2.685.286a.5.5 0 0 0 .336.942ZM22.218 14.61c-.659-.235-1.552-.394-2.685-.287a.5.5 0 1 0 .094.995c.987-.093 1.734.048 2.255.233a.5.5 0 0 0 .336-.942ZM15.82 2a4.27 4.27 0 0 0-3.8 2.22c.62-.14 1.25-.22 1.88-.22h.15c1.81 0 3.33 1.48 3.32 3.29-.01.82-.31 1.56-.81 2.13a.542.542 0 0 0 .57.88 4.262 4.262 0 0 0 2.89-4.04c.01-2.32-1.88-4.23-4.2-4.26Z"/></svg>
